X:1
T:Title
%%score 1 ( 2 3 ) ( 4 5 )
L:1/8
M:3/4
K:F
V:1 treble nm="Choir Aahs, Unnamed-000"
V:2 treble nm="Grand Piano, Unnamed-001"
V:3 treble 
V:4 bass nm="Drawbar Organ, Staff-1"
V:5 bass 
V:1
 C2 F2 F2 | GA F2 F2 | AB c2 c2 | d2 B4 | GA B2 B2 | c2 A2 A2 | FG G2 D2 | F2 E4 | C2 F2 F2 | %9
w: By~William~James~Kirkpatrick,~1895 * *|||||||||
 GA F2 F2 | AB c2 c2 | d2 B4 | GA B2 B2 | c2 A2 A2 | FA G2 D2 | E2 F4- | F4 z2 |] %17
w: ||||||||
V:2
 z2 F2 z2 | [DG][CA] [A,F]2 F2 | AB c2 c2 | d2 B2- [EB]2 | G[EA] B2 B2 | [Gc]2 [GA]2 [FA]2 | %6
 .F2 z2 z2 | [B,F]2 [CE]4 | C2 [A,F]2 [A,F]2 | [B,G][CA] [A,F]2 [A,F]2 | AB c2 c2 | d2 B2- [FB]2 | %12
 [DG][EA] B2 B2 | [Gc]2 [GA]2 [FA]2 | .F2 z2 z2 | E2 z2 z2 | z6 |] %17
V:3
 C2 C2- [CF]2 | x6 | F2 F4- | F2 F2 z2 | z2 F4 | x6 | C-[CA] [DG]2 D2 | x6 | x6 | x6 | F2 F4- | %11
 F2 F2 z2 | z2 F4 | x6 | C-[CA] [DG]2 D2 | DC [A,F]4- | [A,F]4 z2 |] %17
V:4
 C,2 [A,,F,]4 | [B,,F,][C,E,] z2 A,2 | F,G, A,2 A,2 | B,2[K:treble] D2 C2 | z2 D4[K:bass] | %5
 [E,C]2 [F,C]4 | z2 F,4 | [D,F,]2 [C,G,]4 | C,2 [F,,C,]4- | [F,,C,]2 [F,,C,]4 | F,G, A,2 A,2 | %11
 B,2 D2 C2 | B,[A,C] [G,D]4 | [E,C]2 [F,C]4 | z2 F,4 | [C,E,]2 [F,,C,]4- | [F,,C,]4 z2 |] %17
V:5
 x6 | z2 D,4 | z2 F,4- | F,2[K:treble] G,4 | [B,D][CE] z2[K:bass] D,2 | x6 | A,F, B,,2 G,,2 | x6 | %8
 x6 | x6 | z2 F,4- | F,2 G,4 | x6 | x6 | [A,,F,]2 B,,2 G,,2 | x6 | x6 |] %17

